public/icon/twitter.svg

<svg width="20" height="20" viewBox="0 0 20 20" fill="none" xmlns="http://www.w3.org/2000/svg">
<path d="M2.39547 3.64789C2.30321 3.96057 2.25579 4.28695 2.256 4.61674L2.256 4.61799C2.255 5.15893 2.38471 5.69121 2.63294 6.16731C2.88114 6.64336 3.23981 7.04791 3.676 7.34583L5.08169 8.30592L3.38008 8.25853C3.01558 8.24837 2.65551 8.18923 2.30886 8.08373C2.42213 8.56622 2.64131 9.01886 2.95289 9.40548C3.42208 9.98766 4.07142 10.3839 4.78977 10.5302L4.83872 11.4975C4.50344 11.602 4.15633 11.6614 3.80613 11.6743C4.0191 12.0273 4.29626 12.3373 4.62427 12.5863L4.32197 12.9845L4.62427 12.5863C5.15857 12.9918 5.80161 13.2158 6.46385 13.2289L7.83808 13.256L6.76765 14.1182C5.66273 15.0082 4.35006 15.5767 2.96791 15.7733C4.13719 16.2524 5.39012 16.501 6.66038 16.4994L6.66632 16.4994V16.4995C7.98395 16.5135 9.29138 16.2586 10.5124 15.7494C11.7334 15.2402 12.8438 14.4867 13.7785 13.5323C14.7132 12.5779 15.4534 11.4418 15.9552 10.19C16.4571 8.93818 16.7104 7.59614 16.7 6.24238L16.7 6.23856L16.7 6.23765V6.23673V6.23581V6.23489V6.23397V6.23305V6.23213V6.23121V6.2303V6.22938V6.22846V6.22754V6.22662V6.22569V6.22477V6.22385V6.22293V6.22201V6.22109V6.22017V6.21925V6.21832V6.2174V6.21648V6.21556V6.21463V6.21371V6.21279V6.21186V6.21094V6.21001V6.20909V6.20817V6.20724V6.20632V6.20539V6.20447V6.20354V6.20262V6.20169V6.20076V6.19984V6.19891V6.19799V6.19706V6.19613V6.19521V6.19428V6.19335V6.19242V6.19149V6.19057V6.18964V6.18871V6.18778V6.18685V6.18592V6.18499V6.18407V6.18314V6.18221V6.18128V6.18035V6.17942V6.17849V6.17756V6.17662V6.17569V6.17476V6.17383V6.1729V6.17197V6.17104V6.1701V6.16917V6.16824V6.16731V6.16637V6.16544V6.16451V6.16357V6.16264V6.16171V6.16077V6.15984V6.1589V6.15797V6.15704V6.1561V6.15517V6.15423V6.1533V6.15236V6.15142V6.15049V6.14955V6.14862V6.14768V6.14674V6.14581V6.14487V6.14393V6.143V6.14206V6.14112V6.14018V6.13925V6.13831V6.13737V6.13643V6.13549V6.13455V6.13362V6.13268V6.13174V6.1308V6.12986V6.12892V6.12798V6.12704V6.1261V6.12516V6.12422V6.12328V6.12234V6.1214V6.12045V6.11951V6.11857V6.11763V6.11669V6.11575V6.1148V6.11386V6.11292V6.11198V6.11103V6.11009V6.10915V6.10821V6.10726V6.10632V6.10538V6.10443V6.10349V6.10254V6.1016V6.10066V6.09971V6.09877V6.09782V6.09688V6.09593V6.09499V6.09404V6.0931V6.09215V6.0912V6.09026V6.08931V6.08837V6.08742V6.08647V6.08553V6.08458V6.08363V6.08269V6.08174V6.08079V6.07984V6.0789V6.07795V6.077V6.07605V6.0751V6.07415V6.07321V6.07226V6.07131V6.07036V6.06941V6.06846V6.06751V6.06656V6.06561V6.06466V6.06371V6.06276V6.06181V6.06086V6.05991V6.05896V6.05801V6.05706V6.05611V6.05516V6.05421V6.05326V6.05231V6.05135V6.0504V6.04945V6.0485V6.04755V6.04659V6.04564V6.04469V6.04374V6.04278V6.04183V6.04088V6.03992V6.03897V6.03802V6.03706V6.03611V6.03516V6.0342V6.03325V6.0323V6.03134V6.03039V6.02943V6.02848V6.02752V6.02657V6.02561V6.02466V6.0237V6.02275V6.02179V6.02084V6.01988V6.01893V6.01797V6.01701V6.01606V6.0151V6.01415V6.01319V6.01223V6.01128V6.01032V6.00936V6.00841V6.00745V6.00649V6.00553V6.00458V6.00362V6.00266V6.0017V6.00075V5.99979V5.99883V5.99787V5.99691V5.99596V5.995V5.99404V5.99308V5.99212V5.99116V5.9902V5.98924V5.98828V5.98733V5.98637V5.98541V5.98445V5.98349V5.98253V5.98157V5.98061V5.97965V5.97869V5.97773V5.97677V5.97581V5.97485V5.97389V5.97292V5.97196V5.971V5.97004V5.96908V5.96812V5.96716V5.9662V5.96524V5.96427V5.96331V5.96235V5.96139V5.96043V5.95946V5.9585V5.95754V5.95658V5.95562V5.95465V5.95369V5.95273V5.95176V5.9508V5.94984V5.94888V5.94791V5.94695V5.94599V5.94502V5.94406V5.9431V5.94213V5.94117V5.94021V5.93924V5.93828V5.93731V5.93635V5.93539V5.93442V5.93346V5.93249V5.93153V5.93056V5.9296V5.92863V5.92767V5.9267V5.92574V5.92477V5.92381V5.92284V5.92188V5.92091V5.91995V5.91898V5.91802V5.91705V5.91609V5.91512V5.91416V5.91319V5.91222V5.91126V5.91029V5.90933V5.90836V5.90739V5.90643V5.90546V5.90449V5.90353V5.90256V5.90159V5.90063V5.89966V5.89869V5.89773V5.89676V5.89579V5.89483V5.89386V5.89289V5.89192V5.89096V5.88999V5.88902V5.88805V5.88709V5.88612V5.88515V5.88418V5.88322V5.88225V5.88128V5.88031V5.87934V5.87838V5.87741V5.87644V5.87547V5.8745V5.87353V5.87257V5.8716V5.87063V5.86966V5.86869V5.86772V5.86676V5.86579V5.86482V5.86385V5.86288V5.86191V5.86094V5.85997V5.859V5.85803V5.85707V5.8561V5.85513V5.85416V5.85319V5.85222V5.85125V5.85028V5.84931V5.84834V5.84737V5.8464V5.84543V5.84446V5.84349V5.84252V5.84155V5.84058V5.83961V5.83864V5.83767V5.8367V5.83573V5.83476V5.83379V5.83282V5.83185V5.83088V5.82991V5.82894V5.82797V5.827V5.82603V5.82506V5.82409V5.82312V5.82215V5.82118V5.82021V5.81924V5.81827V5.8173V5.81632V5.81535V5.81438V5.81341V5.81244V5.81147V5.8105V5.80953V5.80856V5.80759V5.80662V5.80564V5.80467V5.8037V5.80273V5.80176V5.80079V5.79982V5.79885V5.79788V5.7969V5.79593V5.79496V5.79399V5.79302V5.79205V5.79108V5.79011V5.78913V5.78816V5.78719V5.78622V5.78525V5.78428V5.78331V5.78233V5.78136V5.78039V5.77942V5.77845V5.77748V5.77651V5.77553V5.77456V5.77359V5.77262V5.77165V5.77068V5.7697V5.76873V5.76776V5.76679V5.76582V5.76485V5.76387V5.7629V5.76193V5.76096V5.75999V5.75902V5.75804V5.75707V5.7561V5.75513V5.75416V5.75319V5.75221V5.75124V5.75027V5.50293L16.8966 5.35284C17.1282 5.17604 17.3487 4.98516 17.557 4.78138M2.39547 3.64789L18.455 4.54248C18.1604 4.63948 17.8606 4.71925 17.557 4.78138M2.39547 3.64789C3.26157 4.58816 4.28168 5.3704 5.41221 5.95795C6.78558 6.6717 8.29084 7.082 9.83015 7.1617L10.4953 7.19614L10.3427 6.54778C10.176 5.83978 10.2437 5.09526 10.5347 4.43163L10.0767 4.23089L10.5347 4.43163C10.8255 3.76816 11.3221 3.2247 11.9443 2.88439C12.5663 2.54421 13.2798 2.42546 13.9735 2.5456C14.6673 2.66575 15.3046 3.01857 15.7845 3.55132L15.9754 3.76326L16.255 3.70678C16.6006 3.63697 16.9405 3.54373 17.2726 3.42792M2.39547 3.64789L17.2726 3.42792M17.557 4.78138C17.352 4.82332 17.1453 4.85722 16.9374 4.88295L16.6151 3.96018C16.8575 3.81196 17.0782 3.63267 17.2726 3.42792M17.557 4.78138L17.2726 3.42792M1.94477 15.85C3.40205 16.6053 5.01741 17.0015 6.661 16.9994C8.04672 17.0142 9.42142 16.7461 10.7048 16.2109C11.9882 15.6756 13.1545 14.884 14.1357 13.8822C15.1168 12.8804 15.8932 11.6885 16.4193 10.3761C16.9454 9.06368 17.2108 7.65712 17.2 6.23856L1.94477 15.85Z" fill="black" stroke="black"/>
</svg>

<svg width="20" height="20" fill="none" xmlns="http://www.w3.org/2000/svg"><path d="M2.395 3.648c-.092.313-.14.639-.139.969v.001a3.34 3.34 0 00.377 1.55c.248.475.607.88 1.043 1.178l1.406.96-1.702-.047a4.068 4.068 0 01-1.071-.175c.113.482.332.935.644 1.321.47.583 1.118.979 1.837 1.125l.049.968a3.96 3.96 0 01-1.033.176c.213.353.49.663.818.912l-.302.399.302-.399c.535.406 1.178.63 1.84.643l1.374.027-1.07.862a7.81 7.81 0 01-3.8 1.655c1.17.48 2.422.728 3.692.726h.006v0a9.72 9.72 0 003.846-.75 9.916 9.916 0 003.266-2.217 10.198 10.198 0 002.177-3.342c.502-1.252.755-2.594.745-3.948v-.008 0-.002 0-.002 0-.002 0-.006 0-.002 0-.002 0-.002 0-.006 0-.002 0-.002 0-.002 0-.006 0-.002 0-.002 0-.002 0-.007 0-.002 0-.002 0-.002 0-.008 0-.002 0-.002 0-.002 0-.008 0-.002 0-.002 0-.002 0-.008 0-.002 0-.002 0-.002 0-.002 0-.008 0-.002 0-.002 0-.002 0V6.11v0-.002 0-.002 0-.002 0-.002 0V6.094v0-.002 0-.002 0-.002 0-.002 0V6.077v0-.002 0-.002 0-.002 0-.002 0V6.057v0-.002 0-.002 0-.002 0-.002 0-.002 0V6.038v0-.002 0-.002 0-.002 0-.002 0-.002 0V6.017v0-.002 0-.002 0-.002 0-.002 0-.002 0V5.993v0-.002 0-.002 0-.002 0-.002 0-.002 0V5.97v0-.002 0-.002 0-.002 0-.002 0-.002 0-.002 0V5.945v0-.002 0-.002 0-.002 0-.002 0-.002 0-.002 0V5.916v0-.002 0-.002 0-.002 0-.002 0-.002 0-.002 0V5.887v0-.002 0-.002 0-.002 0-.002 0-.002 0-.002 0-.002 0V5.858v0-.002 0-.002 0-.002 0-.002 0-.002 0-.002 0-.002 0V5.825v0-.002 0-.002 0-.002 0-.002 0-.002 0-.002 0-.002 0-.002 0V5.792v0-.002 0-.002 0-.002 0-.002 0-.002 0-.002 0-.002 0V5.757v0-.002 0-.002 0-.002 0-.249l.197-.15c.231-.177.452-.368.66-.572M2.395 3.648l16.06.894a8 8 0 01-.898.24M2.395 3.647a11 11 0 003.017 2.31A10.787 10.787 0 009.83 7.162l.665.034-.152-.648a3.36 3.36 0 01.192-2.116l-.458-.201.458.2a3.243 3.243 0 011.41-1.547 3.116 3.116 0 012.028-.338c.694.12 1.332.473 1.811 1.005l.191.212.28-.056c.346-.07.686-.163 1.018-.28m-14.878.22l14.878-.22m.284 1.354a7.984 7.984 0 01-.62.102l-.322-.923c.243-.148.463-.327.658-.532m.284 1.353l-.284-1.353M1.945 15.85A10.217 10.217 0 006.66 17c1.386.014 2.76-.254 4.044-.79a10.418 10.418 0 003.43-2.328 10.699 10.699 0 002.284-3.506A10.9 10.9 0 0017.2 6.24L1.945 15.85z" fill="#000" stroke="#000"/></svg>
